modules/hawcons-stroke/icons/icon-33-award.svg

<?xml version="1.0" encoding="UTF-8" standalone="no"?>
<svg width="32px" height="32px" viewBox="0 0 32 32" version="1.1" xmlns="http://www.w3.org/2000/svg" xmlns:xlink="http://www.w3.org/1999/xlink" xmlns:sketch="http://www.bohemiancoding.com/sketch/ns">
    <!-- Generator: Sketch 3.0.3 (7891) - http://www.bohemiancoding.com/sketch -->
    <title>icon 33 award</title>
    <desc>Created with Sketch.</desc>
    <defs></defs>
    <g id="Page-1" stroke="none" stroke-width="1" fill="none" fill-rule="evenodd" sketch:type="MSPage">
        <g id="icon-33-award" sketch:type="MSArtboardGroup" fill="#929292">
            <path d="M16.0072233,19.9999807 L11.6014826,31.4773277 L9.87584513,27.6014826 L6,29.32712 L10.3529754,17.9872315 C8.32301176,16.3370448 7.02605283,13.8199829 7.02605283,11 C7.02605283,6.02943725 11.0554901,2 16.0260528,2 C20.9966156,2 25.0260528,6.02943725 25.0260528,11 C25.0260528,13.8199829 23.7290939,16.3370448 21.6991303,17.9872315 L26.0521057,29.32712 L22.1762605,27.6014826 L20.4506231,31.4773277 L16.0448824,19.9999807 C16.0386073,19.9999936 16.0323308,20 16.0260528,20 C16.0197748,20 16.0134983,19.9999936 16.0072233,19.9999807 L16.0072233,19.9999807 L16.0072233,19.9999807 Z M14.9600512,19.937529 L11.527983,28.8783724 L10.3775581,26.2944757 L7.79366132,27.4449006 L11.1916968,18.5927156 C12.3050465,19.3030744 13.5850946,19.7752756 14.9600512,19.937529 L14.9600512,19.937529 L14.9600512,19.937529 Z M20.8604089,18.5927156 L24.2584443,27.4449006 L21.6745476,26.2944757 L20.5241226,28.8783724 L17.0920544,19.937529 C18.467011,19.7752756 19.7470592,19.3030744 20.8604089,18.5927156 L20.8604089,18.5927156 L20.8604089,18.5927156 Z M16.0260528,19 C20.4443308,19 24.0260528,15.418278 24.0260528,11 C24.0260528,6.581722 20.4443308,3 16.0260528,3 C11.6077748,3 8.02605283,6.581722 8.02605283,11 C8.02605283,15.418278 11.6077748,19 16.0260528,19 L16.0260528,19 Z M16.0260528,17 C19.3397613,17 22.0260528,14.3137085 22.0260528,11 C22.0260528,7.6862915 19.3397613,5 16.0260528,5 C12.7123443,5 10.0260528,7.6862915 10.0260528,11 C10.0260528,14.3137085 12.7123443,17 16.0260528,17 L16.0260528,17 Z M16.0260528,16 C18.7874766,16 21.0260528,13.7614237 21.0260528,11 C21.0260528,8.23857625 18.7874766,6 16.0260528,6 C13.2646291,6 11.0260528,8.23857625 11.0260528,11 C11.0260528,13.7614237 13.2646291,16 16.0260528,16 L16.0260528,16 Z" id="award" sketch:type="MSShapeGroup"></path>
        </g>
    </g>
</svg>

<svg width="32" height="32" xmlns="http://www.w3.org/2000/svg"><path d="M16.007 20l-4.406 11.477-1.725-3.876L6 29.327l4.353-11.34a9 9 0 1 1 11.346 0l4.353 11.34-3.876-1.726-1.725 3.876L16.045 20a9.16 9.16 0 0 1-.038 0zm-1.047-.062l-3.432 8.94-1.15-2.584-2.584 1.15 3.398-8.851a8.945 8.945 0 0 0 3.768 1.345zm5.9-1.345l3.398 8.852-2.583-1.15-1.15 2.583-3.433-8.94a8.945 8.945 0 0 0 3.768-1.345zM16.026 19a8 8 0 1 0 0-16 8 8 0 0 0 0 16zm0-2a6 6 0 1 0 0-12 6 6 0 0 0 0 12zm0-1a5 5 0 1 0 0-10 5 5 0 0 0 0 10z" fill="#929292" fill-rule="evenodd"/></svg>
